app/images/dist/svg/triggerTwo.svg

<svg width="40" height="38" viewBox="0 0 40 38" fill="none" xmlns="http://www.w3.org/2000/svg">
<path d="M34.033 11.1679C34.0229 11.1179 34.008 11.0687 33.9885 11.0211C33.9689 10.9742 33.9447 10.9289 33.9166 10.8867C33.8877 10.8437 33.8557 10.8039 33.8189 10.7679C33.7829 10.732 33.7432 10.6992 33.7001 10.6711C33.6579 10.6429 33.6127 10.6187 33.5657 10.5992C33.5189 10.5797 33.4697 10.564 33.4196 10.5547C33.3189 10.5344 33.215 10.5344 33.1142 10.5547C33.0642 10.564 33.015 10.5797 32.9682 10.5992C32.9213 10.6187 32.876 10.6422 32.833 10.6711C32.7907 10.6992 32.7502 10.732 32.7143 10.7679C32.6783 10.8039 32.6454 10.8437 32.6174 10.8867C32.5892 10.9289 32.565 10.9742 32.5455 11.0211C32.526 11.0687 32.5111 11.1179 32.501 11.1679C32.4908 11.2179 32.4854 11.2695 32.4854 11.3203C32.4854 11.3711 32.4908 11.4226 32.501 11.4726C32.5111 11.5226 32.526 11.5719 32.5455 11.6187C32.565 11.6664 32.5893 11.7117 32.6174 11.7539C32.6454 11.7969 32.6783 11.8367 32.7143 11.8726C32.7502 11.9086 32.7908 11.9414 32.833 11.9695C32.8759 11.9976 32.9212 12.0219 32.9682 12.0414C33.015 12.0609 33.0642 12.0758 33.1142 12.0859C33.165 12.0961 33.2158 12.1015 33.2665 12.1015C33.4728 12.1015 33.6736 12.018 33.8189 11.8726C33.8557 11.8367 33.8877 11.7969 33.9166 11.7539C33.9447 11.7117 33.9689 11.6664 33.9885 11.6187C34.008 11.5719 34.0229 11.5226 34.033 11.4726C34.0432 11.4226 34.0479 11.3711 34.0479 11.3203C34.0479 11.2695 34.0432 11.2179 34.033 11.1679Z" fill="#333333"/>
<path d="M39.2188 0.108398H0.78125C0.349766 0.108398 0 0.458164 0 0.889648V7.64371C0 8.07519 0.349766 8.42496 0.78125 8.42496H1.8757V37.1103C1.8757 37.5418 2.22547 37.8915 2.65695 37.8915H37.343C37.7745 37.8915 38.1243 37.5418 38.1243 37.1103V8.42496H39.2188C39.6502 8.42496 40 8.07519 40 7.64371V0.889648C40 0.458164 39.6502 0.108398 39.2188 0.108398ZM14.8502 1.6709H25.1498V6.86246H14.8502V1.6709ZM14.8502 8.42496H25.1498V18.6308L23.4091 17.4234C23.1413 17.2377 22.7864 17.2377 22.5187 17.4233L20 19.1695L17.4812 17.4232C17.3473 17.3304 17.1917 17.284 17.0361 17.284C16.8804 17.284 16.7247 17.3305 16.5908 17.4233L14.8502 18.6307V8.42496ZM1.5625 6.86246V1.6709H13.2877V6.86246H1.5625ZM13.2877 8.42496V10.539H3.4382V8.42496H13.2877ZM21.2149 22.5448V36.329H3.4382V12.1014H13.2877V20.1235C13.2877 20.4142 13.4491 20.6808 13.7067 20.8157C13.9643 20.9505 14.2755 20.9311 14.5143 20.7654L17.0362 19.0161L19.5548 20.7622C19.8226 20.9478 20.1774 20.9478 20.4451 20.7622L22.9638 19.0161L25.4857 20.7654C25.6189 20.8578 25.7746 20.9047 25.931 20.9047C26.0549 20.9047 26.1794 20.8752 26.2932 20.8157C26.5508 20.6808 26.7122 20.4142 26.7122 20.1235V12.1014H30.1389C30.5703 12.1014 30.9202 11.7517 30.9202 11.3202C30.9202 10.8887 30.5703 10.5389 30.1389 10.5389H26.7122V8.42488H36.5617V21.7636H21.9962C21.5648 21.7636 21.2149 22.1133 21.2149 22.5448ZM36.5618 36.329H22.7774V23.326H36.5618V36.329ZM38.4375 6.86246H26.7123V1.6709H38.4375V6.86246Z" fill="#333333"/>
<path d="M35.2022 28.153C35.0264 26.4142 33.6157 25.1063 31.9102 25.1063C31.0804 25.1063 30.328 25.4401 29.7588 26.0345C29.1429 25.4601 28.3091 25.1063 27.4637 25.1063C25.7731 25.1063 24.4729 26.3578 24.2935 28.1533C24.27 28.3122 24.236 28.7333 24.3899 29.3534C24.6228 30.2901 25.1567 31.139 25.9397 31.813L29.1957 34.5603C29.3537 34.6948 29.5507 34.7621 29.7477 34.7621C29.9445 34.7621 30.1413 34.6951 30.2993 34.5608L33.5614 31.8082C34.3388 31.1397 34.8727 30.2908 35.1056 29.3534C35.2598 28.733 35.2255 28.3117 35.2022 28.153ZM33.5891 28.9766C33.4348 29.598 33.0729 30.1674 32.5481 30.6188L29.7477 32.9818L26.9531 30.6237C26.4225 30.167 26.0606 29.5975 25.9063 28.9767C25.8248 28.6481 25.8334 28.4462 25.8375 28.3958C25.8453 28.3651 25.8428 28.3651 25.8465 28.325C25.9237 27.5005 26.4536 26.6687 27.4636 26.6687C28.1313 26.6687 28.8092 27.1032 29.0753 27.7018C29.2008 27.9838 29.4806 28.1656 29.7892 28.1656C29.7892 28.1656 29.7893 28.1656 29.7894 28.1656C30.0981 28.1655 30.3779 27.9837 30.5032 27.7016C30.6746 27.3159 31.0852 26.6687 31.9102 26.6687C32.8279 26.6687 33.5592 27.3653 33.6491 28.3251C33.6528 28.3651 33.6502 28.3651 33.6581 28.3958C33.6621 28.4462 33.6708 28.6481 33.5891 28.9766Z" fill="#333333"/>
</svg>

<svg width="40" height="38" fill="none" xmlns="http://www.w3.org/2000/svg"><path d="M34.033 11.168a.811.811 0 00-.116-.281.75.75 0 00-.217-.216.781.781 0 10.333.497z" fill="#333"/><path d="M39.219.108H.78A.781.781 0 000 .89v6.754c0 .431.35.781.781.781h1.095V37.11c0 .432.35.782.781.782h34.686c.431 0 .781-.35.781-.782V8.425h1.095c.431 0 .781-.35.781-.781V.89a.781.781 0 00-.781-.782zM14.85 1.671h10.3v5.191h-10.3V1.671zm0 6.754h10.3v10.206l-1.74-1.208a.781.781 0 00-.891 0L20 19.17l-2.519-1.747a.78.78 0 00-.89 0l-1.74 1.208V8.425zM1.563 6.862V1.671h11.725v5.191H1.562zm11.725 1.563v2.114h-9.85V8.425h9.85zm7.927 14.12v13.784H3.438V12.101h9.85v8.022a.781.781 0 001.226.642l2.522-1.749 2.519 1.746a.781.781 0 00.89 0l2.519-1.746 2.522 1.75a.78.78 0 001.226-.642V12.1h3.427a.781.781 0 100-1.562h-3.427V8.425h9.85v13.339H21.996a.781.781 0 00-.781.78zm15.347 13.784H22.777V23.326h13.785v13.003zm1.876-29.467H26.712V1.671h11.726v5.191z" fill="#333"/><path d="M35.202 28.153c-.176-1.739-1.586-3.047-3.292-3.047-.83 0-1.582.334-2.151.928-.616-.574-1.45-.928-2.295-.928-1.69 0-2.991 1.252-3.17 3.047-.024.16-.058.58.096 1.2.233.937.767 1.786 1.55 2.46l3.256 2.747a.85.85 0 00.552.202.85.85 0 00.551-.201l3.262-2.753c.778-.668 1.312-1.517 1.545-2.455.154-.62.12-1.041.096-1.2zm-1.613.824c-.154.621-.516 1.19-1.04 1.642l-2.801 2.363-2.795-2.358c-.53-.457-.892-1.026-1.047-1.647a1.9 1.9 0 01-.069-.581c.008-.03.006-.03.01-.071.077-.825.607-1.656 1.617-1.656.667 0 1.345.434 1.611 1.033a.781.781 0 001.428 0c.172-.386.582-1.033 1.407-1.033.918 0 1.65.696 1.74 1.656.003.04 0 .04.008.07a1.9 1.9 0 01-.069.582z" fill="#333"/></svg>
